img/icons/i-mess.svg

<svg width="28" height="28" viewBox="0 0 28 28" fill="none" xmlns="http://www.w3.org/2000/svg">
<path d="M4.27009 5.37977C2.23586 7.67415 1 10.6925 1 14C1 17.555 2.42754 20.7762 4.73997 23.1231C4.28531 24.0271 3.51332 24.7439 2.56942 25.1261C3.0541 25.3222 3.58378 25.4306 4.13883 25.4306C5.04057 25.4306 5.87518 25.1448 6.5584 24.6597C8.66665 26.1343 11.2321 27 14 27C21.1797 27 27 21.1797 27 14C27 6.82029 21.1797 1 14 1C10.6926 1 7.67421 2.23581 5.37982 4.27004M9.07415 13.0629L7.11895 12.7685L6.2347 11L5.35046 12.7685L3.39526 13.0629L4.80396 14.4504L4.47984 16.4009L6.2347 15.4899L7.98957 16.4009L7.66545 14.4504L9.07415 13.0629ZM24.6047 13.0629L22.6495 12.7685L21.7652 11L20.881 12.7685L18.9258 13.0629L20.3345 14.4504L20.0104 16.4009L21.7652 15.4899L23.5201 16.4009L23.196 14.4504L24.6047 13.0629ZM16.8394 13.0629L14.8843 12.7685L14 11L13.1158 12.7685L11.1606 13.0629L12.5693 14.4504L12.2451 16.4009L14 15.4899L15.7549 16.4009L15.4308 14.4504L16.8394 13.0629Z" stroke="white" stroke-width="1.2" stroke-miterlimit="10" stroke-linecap="round" stroke-linejoin="round"/>
</svg>

<svg width="28" height="28" fill="none" xmlns="http://www.w3.org/2000/svg"><path d="M4.27 5.38A12.95 12.95 0 0 0 1 14c0 3.555 1.428 6.776 3.74 9.123a4.2 4.2 0 0 1-2.17 2.003 4.175 4.175 0 0 0 1.569.305c.902 0 1.736-.286 2.42-.771A12.939 12.939 0 0 0 14 27c7.18 0 13-5.82 13-13S21.18 1 14 1a12.95 12.95 0 0 0-8.62 3.27m3.694 8.793-1.955-.295L6.235 11l-.885 1.768-1.955.295 1.409 1.387-.324 1.95 1.755-.91 1.755.91-.325-1.95 1.41-1.387Zm15.53 0-1.954-.295L21.764 11l-.884 1.768-1.955.295 1.409 1.387-.325 1.95 1.755-.91 1.755.91-.324-1.95 1.409-1.387Zm-7.765 0-1.955-.295L14 11l-.884 1.768-1.955.295 1.408 1.387-.324 1.95L14 15.49l1.755.91-.324-1.95 1.408-1.387Z" stroke="#fff" stroke-width="1.2" stroke-miterlimit="10" stroke-linecap="round" stroke-linejoin="round"/></svg>
